!!!!SEGMENT: pl-wtm--r-2023--001-001_smietanski-emil-wladyslaw--marcia-zingaresca-op-18-march-1.krn
!!!cenid: 18xx:1973
!!!COM: Śmietański, Emil Władysław
!!!COM-rismID: pe50041781
!!!CDT: 1845-1886
!!!CNT: Polish
!!!OPR: Marcia zingaresca op. 18
!!!OTL: [march 1]
!!!OMV: 001
!!!PDT: 1867
!!!AGN: Secular; March
!!!YEC: Copyright 2022 Narodowy Instytut Fryderyka Chopina (https://polishscores.org)
!!!YEM: License CC-BY-4.0 (https://creativecommons.org/licenses/by/4.0)
!!!SMS-siglum: PL-Wtm
!!!SMS-shelfmark: R 2023
!!!SMS-shelfwork: 001-001 M
!!!SMS-variant:
!!!SMS-altvar:
!!!NIFC-rismSourceID: 1001112458
!!!NIFC-rismChildID: 1001112460
!!!NIFC-islandoraID: pl-wtm:29480
!!!URL-pdf-islandora: https://repozytorium.nifc.pl/islandora/object/pl-wtm%3A29480/datastream/PDF/view
!!!URL-scan: https://polish.musicsources.pl/pl/lokalizacje/galeria/rekopisy/6515 @EN{Scan on Polish Music Sources Website} @PL{Skany w portalu Dziedzictwo Muzyki Polskiej w otwartym dostępie}
!!!IIIF:
!!!ONB-nifc: UWAGA: Ima Marcia zingaresca
!!!AIN: 1 empty 1 forte
!!!key:
**kern	**kern	**dynam
*part2	*part1	*
*staff2	*staff1	*
*Iempty	*Iforte	*
*	*I"fortepian	*
*>[A,B,B1,B,B2,C]	*>[A,B,B1,B,B2,C]	*
*clefF4	*clefG2	*
*k[f#c#]	*k[f#c#]	*
*g:	*g:	*
*M4/8	*M4/8	*
=1	=1	=1
*>A	*>A	*
.	32qqa\LLL	.
.	32qqb-X\	.
!	!LO:TX:t=P:mixedbeam:problem	!
.	32qqcc#\JJJ	.
!	!	!LO:DY:rj
8DD/L 8DDD/	8dd\L 8a\ 8d\	ff
16F#/L 16AA/	16d/L 16A/	.
16F#/JJ 16AA/	16d/JJ 16A/	.
8F#/ 8AA/	8d/ 8A/	.
8r	8r	.
=2	=2	=2
.	32qqf#/LLL	.
.	32qqg/	.
.	32qqa/JJJ	.
8DD/L 8DDD/	8b-X/L 8e-X/ 8B-X/	.
16E-X/L 16GG/	16e-/L 16B-/ 16G/	.
16E-/JJ 16GG/	16e-/JJ 16B-/ 16G/	.
8E-/ 8GG/	8e-/ 8B-/ 8G/	.
8r	8r	.
=3	=3	=3
.	32qqc#/LLL	.
.	32qqd/	.
.	32qqe-X/	mf
.	32qqf#/JJJ	.
8AA/L 8DD/	8.g/L 8.c#/	.
8E-X/J 8AA/	.	.
.	16c#/Jk 16G/	.
8AA/L 8DD/	16g/LL 16c#/	.
.	16c#/ 16G/	.
8E-/J 8AA/	16g/ 16c#/	.
.	16c#/JJ 16G/	.
=4	=4	=4
8AA/L 8DD/	4d/ 4F#/	.
16D/L 16AA/	.	.
16D/JJ 16AA/	.	.
8D/ 8AA/	4r	.
8r	.	.
=5	=5	=5
.	32qqaa\LLL	.
.	32qqbb-X\	.
!LO:TX:t=P:problem=mixedbeam	!	!
.	32qqccc#\JJJ	ff
8DD/L 8DDD/	8ddd\L 8aa\ 8dd\	.
16f#\L 16A\	16dd\L 16a\	.
16f#\JJ 16A\	16dd\JJ 16a\	.
8f#\ 8A\	8dd\ 8a\	.
8r	8r	.
!!LO:LB:g=original
=6	=6	=6
.	32qqff#\LLL	.
.	32qqgg\	.
!LO:TX:t=P:problem=mixedbeam	!	!
.	32qqaa\JJJ	.
8D/L 8DD/	8bb-X\L 8ee-X\ 8b-X\	.
16e-X\L 16B-X\ 16G\	16ee-\L 16b-\ 16g\	.
16e-\JJ 16B-\ 16G\	16ee-\JJ 16b-\ 16g\	.
8e-\ 8B-\ 8G\	8ee-\ 8b-\ 8g\	.
8r	8r	.
=7	=7	=7
.	32qqcc#\LLL	.
.	32qqdd\	mf
.	32qqee-X\	.
.	32qqff#\JJJ	.
8A\L 8D\	8.gg\L 8.cc#\	.
8e-X\J 8A\	.	.
.	16cc#\L 16g\	.
8A\L 8D\	16gg\ 16cc#\	.
.	16cc#\ 16g\	.
8e-\J 8A\	16gg\ 16cc#\	.
.	16cc#\JJ 16g\	.
=8	=8	=8
8A\L 8D\	4.dd\ 4.f#\	.
16d\L 16A\	.	.
16d\JJ 16A\	.	.
8d\ 8A\	.	.
8r	8r	.
=9	=9	=9
!	!	!LO:DY:t=p
.	32qqee-X/	p
8D\L 8GG'\	8dd\L 8b-X\ 8g'\	.
.	32qqee-/	.
8B-X\J 8D'\	8dd\J 8b-\ 8g'\	.
.	32qqdd/	.
8E-X\L 8GG'\	8cc#\L 8b-\ 8g'\	.
.	32qqdd/	.
8B-\J 8E-'\	8cc#\J 8b-\ 8g'\	.
=10	=10	=10
8D\L 8GG\	8.dd\L 8.b-X\ 8.g\	.
8B-X\J 8D\	.	.
.	16gg\Jk	.
4B-\ 4D\	16dd\LL 16b-\ 16g\	.
.	16gg\	.
.	16dd\ 16b-\ 16g\	.
.	16gg\JJ	.
=11	=11	=11
.	32qqee-X/	p
8D\L 8GG\	8dd\L 8b-X\ 8g'\	.
.	32qqee-/	.
8B-X\J 8D\	8dd\J 8b-\ 8g'\	.
.	32qqdd/	.
8E-X\L 8GG\	8cc#\L 8b-\ 8g'\	.
.	32qqdd/	.
8B-\J 8E-\	8cc#\J 8b-\ 8g'\	.
!!LO:LB:g=original
=12	=12	=12
8D\L 8GG\	8.dd\L 8.b-X\ 8.g\	.
8B-X\J 8D\	.	.
.	16bb-X\Jk	.
4B-\ 4D\	16dd\LL 16b-\ 16g\	.
.	16bb-\	.
.	16dd\ 16b-\ 16g\	.
.	16bb-\JJ	.
=13	=13	=13
!LO:TX:t=P:problem=mixedbeam	!	!
8AA/L 8AAA/	16aa\LL 16a\	.
!	!	!LO:DY:rj
.	16ff#\ 16a\	f
8d\J 8A\ 8F#\	16ee-X\ 16a\	.
.	16dd\JJ 16a\	.
4f#\ 4d\ 4B-X\	4ddd\ 4ff#\ 4dd\	.
=14	=14	=14
!LO:TX:t=P:problem=mixedbeam	!	!
8AA/L 8AAA/	16aa\LL 16a\	.
.	16ff#\ 16a\	.
8d\J 8A\ 8F#\	16ee-X\ 16a\	.
.	16dd\JJ 16a\	.
!LO:TX:t=P:problem=bemol dopisany ołówkiem	!	!
4f#\ 4d\ 4B-X\	4ddd\ 4ff#\ 4dd\	.
=15	=15	=15
8F#\L 8AA\	16aa\LL 16a\	.
.	16ff#\ 16a\	.
8d\J 8F#\	16ee-X\ 16a\	.
.	16dd\JJ 16a\	.
8G\L 8AA\	16cc#/LL 16g/	.
.	16b-X/ 16g/	.
8A\J 8G\	16a/ 16c#/	.
.	16g/JJ 16c#/	.
=16	=16	=16
!LO:TX:t=P:problem=mixedbeam	!	!
8AA/L 8DD/	4dd\ 4f#\ 4d\	ff
16d\ 16F#\	.	.
16d\J 16F#\	.	.
8d\ 8F#\	4r	.
8r	.	.
=17||	=17||	=17||
.	32qqa\LLL	.
.	32qqb-X\	.
!LO:TX:t=P:problem=mixedbeam	!LO:TX:t=P:problem=mixedbeam	!
.	32qqcc#\JJJ	ff
8DD/L 8DDD/	8dd\L 8a\ 8d\	.
16F#\L 16AA\	16d/L 16A/	.
16F#\JJ 16AA\	16d/JJ 16A/	.
8F#\ 8AA\	8d/ 8A/	.
8r	8r	.
!!LO:LB:g=original
=18	=18	=18
.	32qqf#/LLL	.
.	32qqg/	.
.	32qqa/JJJ	.
8DD/L 8DDD/	8b-X/L 8e-X/ 8B-X/	.
16E-X/L 16BB-X/ 16GG/	16e-/L 16B-/ 16G/	.
16E-/JJ 16BB-/ 16GG/	16e-/JJ 16B-/ 16G/	.
8E-/ 8BB-/ 8GG/	8e-/ 8B-/ 8G/	.
8r	8r	.
=19	=19	=19
.	32qqc#/LLL	.
.	32qqd/	.
.	32qqe-X/	.
.	32qqf#/JJJ	.
8AA/L 8DD/	8.g/L 8.c#/	.
8E-X/J 8AA/	.	.
.	16c#/Jk 16G/	.
8AA/L 8DD/	16g/LL 16c#/	.
.	16c#/ 16G/	.
8E-/J 8AA/	16g/ 16c#/	.
.	16c#/JJ 16G/	.
=20	=20	=20
8AA/L 8DD/	4d/ 4F#/	.
16D/L 16AA/	.	.
16D/JJ 16AA/	.	.
8D/ 8AA/	4r	.
8r	.	.
=21	=21	=21
.	32qqaa\LLL	.
.	32qqbb-X\	.
!LO:TX:t=P:problem=mixedbeam	!	!
.	32qqccc#\JJJ	ff
8DD/L 8DDD/	8ddd\L 8aa\ 8dd\	.
16f#\L 16A\	16dd\L 16a\	.
16f#\JJ 16A\	16dd\JJ 16a\	.
8f#\ 8A\	8dd\ 8a\	.
8r	8r	.
=22	=22	=22
.	32qqff#\LLL	.
.	32qqgg\	.
!LO:TX:t=P:problem=mixedbeam	!	!
.	32qqaa\JJJ	.
8D/L 8DD/	8bb-X\L 8ee-X\ 8b-X\	.
16e-X\L 16B-X\ 16G\	16ee-\L 16b-\ 16g\	.
16e-\JJ 16B-\ 16G\	16ee-\JJ 16b-\ 16g\	.
8e-\ 8B-\ 8G\	8ee-\ 8b-\ 8g\	.
8r	8r	.
!!LO:LB:g=original
=23	=23	=23
.	32qqcc#\LLL	.
.	32qqdd\	.
.	32qqee-X\	.
.	32qqff#\JJJ	.
8A\L 8D\	8.gg\L 8.cc#\	.
8e-X\J 8A\	.	.
.	16cc#\J 16g\	.
8A\L 8D\	16gg\LL 16cc#\	.
.	16cc#\ 16g\	.
8e-\J 8A\	16gg\ 16cc#\	.
.	16cc#\JJ 16g\	.
=24	=24	=24
8A\L 8D\	4.dd\ 4.f#\	.
16d\L 16A\	.	.
16d\JJ 16A\	.	.
8d\ 8A\	.	.
8r	8dd\	.
=25	=25	=25
*	*^	*
8GG\L	8ryy	16ee-X\ 16b-X\	p
.	.	16r	.
8g\ 8e-X\ 8B-X\ 8G\	[8ee-/	8ee-\ 8b-\	.
8g\ 8e-\ 8B-\ 8G\	16ee-\LL]	4ryy	.
.	16gg\	.	.
8g\J 8e-\ 8B-\ 8G\	16bb\	.	.
.	16gg\JJ	.	.
*	*v	*v	*
=26	=26	=26
8GG\L	16ee-X\LL 16b-X\	.
.	16gg\	.
8g\ 8e-X\ 8B-X\ 8G\	16bb-X\	.
.	16gg\JJ	.
8g\ 8e-\ 8B-\ 8G\	16ee-\LL 16b-\	.
.	16gg\	.
8g\J 8e-\ 8B-\ 8G\	16bb-X\	.
.	16eee-X\JJ	.
=27	=27	=27
!LO:TX:t=P:global:problem=znak arpeggio po nucie	!	!
4A\: 4D\: 4FF#:\	16eee-X\LL 16aa\ 16dd\	.
.	16ddd\	.
.	16ddd\	.
.	16aa\JJ	.
!	!LO:TX:i:b:t=quasi zimbalo	!
16ryy	16aa/	.
16dd>\	16ryy	.
16ryy	16dd/	.
16a>\	16ryy	.
=28	=28	=28
16ryy	16a/	.
16d>\	16ryy	.
16ryy	16d/	.
16A\	16ryy	.
16ryy	16A</	.
16D\	16ryy	.
16ryy	16D</	.
16AA\	16ryy	.
!!LO:LB:g=original
=29	=29	=29
!LO:TX:t=P:problem=mixedbeam	!	!
8EE-X/L	16cc#\ 16g\	.
.	16r	.
8c#\ 8G\	[8cc#\ 8g\	.
8c#\ 8G\	16cc#\LL]	.
.	16ee-X\	.
8c#\J 8G\	16gg\	.
.	16ee-\JJ	.
=30	=30	=30
!LO:TX:t=P:problem=mixedbeam	!	!
8EE-X/L	16cc#\LL 16g\	.
.	16ee-X\	.
8c#\J 8G\	16gg\	.
.	16ee-\JJ	.
8c#\L 8G\	16cc#\LL	.
.	16ee-\	.
8c#\J 8G\	16gg\	.
.	16bb-X\JJ	.
=31	=31	=31
4F#/: 4AA/: 4DD:/	16bb-X\LL 16dd\ 16a\	.
.	16aa\	.
.	16aa\	.
.	16dd\JJ	.
16ryy	16dd/	.
16a>\	16ryy	.
16ryy	16a/	.
16d>\	16ryy	.
=32	=32	=32
16ryy	16d</	.
16A\	16ryy	.
16ryy	16A</	.
16D\	16ryy	.
16ryy	16D</	.
16AA\	16ryy	.
16ryy	16AA</	.
16DD\	16ryy	.
=33	=33	=33
8GG\L	16ee-\ 16b-X\	.
.	16r	.
8g\J 8e-X\ 8B-X\ 8G\	[8ee-\ 8b-\	.
8g\L 8e-\ 8B-\ 8G\	16ee-\LL]	.
.	16gg\	.
8g\J 8e-\ 8B-\ 8G\	16bb\	.
.	16gg\JJ	.
=34	=34	=34
8GG\L	16ee-X\LL 16b-X\	.
.	16gg\	.
8g\J 8e-X\ 8B-X\ 8G\	16bb-X\	.
.	16gg\JJ	.
8g\L 8e-\ 8B-\ 8G\	16ee-\LL 16b-\	.
.	16gg\	.
8g\J 8e-\ 8B-\ 8G\	16bb-\	.
.	16eee-X\JJ	.
!!LO:LB:g=original
=35	=35	=35
4A\: 4D\: 4FF#:\	16eee-X\LL 16aa\ 16dd\	.
.	16ddd\	.
.	16ddd\	.
.	16aa\JJ|	.
16ryy	16aa/	.
16dd>\	16ryy	.
16ryy	16dd/	.
16a>\	16ryy	.
=36	=36	=36
!	!LO:TX:t=P:problem=takt na 5/8	!
16ryy	16a/	.
16d>\	16ryy	.
16ryy	16d/	.
16A\	16ryy	.
16ryy	16A</	.
16D\	16ryy	.
16ryy	16D</	.
16AA\	16ryy	.
16ryy	16AA</	.
16DD\	16ryy	.
=37	=37	=37
!LO:TX:t=P:problem=mixedbeam	!	!
8EE-X/L	16cc#\ 16g\	.
.	16r	.
8c#\J 8G\	[8cc#\ 8g\	.
8c#\L 8G\	16cc#\LL]	.
.	16ee-X\	.
8c#\J 8G\	16gg\	.
.	16ee-\JJ	.
=38	=38	=38
!LO:TX:t=P:problem=mixedbeam	!	!
8EE-X/L	16cc#\LL 16g\	.
.	16ee-X\	.
8c#\J 8G\	16gg\	.
.	16ee-\JJ	.
8c#\L 8G\	16cc#\LL	.
.	16ee-\	.
8c#\J 8G\	16gg\	.
.	16bb-X\JJ	.
=39	=39	=39
4F#/: 4AA/: 4DD:/	16bb-X\LL 16dd\ 16a\	.
.	16aa\	.
.	16aa\	p
!	!LO:TX:i:b:t=sempre	!
.	16dd\JJ	.
16ryy	16dd/	.
16a>\	16ryy	.
16ryy	16a/	.
16d>\	16ryy	.
!!LO:LB:g=original
=40	=40	=40
16ryy	16dd\	.
16a>\	16ryy	.
16ryy	16a/	.
16d>\	16ryy	.
16ryy	16dd\	.
16a>\	16ryy	.
16ryy	16a/	.
16d>\	16ryy	.
=41	=41	=41
16ryy	16dd\	.
16a>\	16ryy	.
16ryy	16a/	.
16a>\	16ryy	.
16ryy	16dd\	.
16a>\	16ryy	.
16ryy	16a/	.
16a>\	16ryy	.
=42	=42	=42
16ryy	16dd\	.
16a>\	16ryy	.
16ryy	16a/	.
16a>\	16ryy	.
16ryy	16dd\	.
16a>\	16ryy	.
16ryy	16a/	.
16a>\	16ryy	.
=43||	=43||	=43||
.	32qqa\LLL	.
.	32qqb-X\	.
!	!LO:TX:t=P:problem=mixedbeam	!
.	32qqcc#\JJJ	ff
8DD/L 8DDD/	8dd\L 8a\ 8d\	.
16F#\L 16AA\	16d/L 16A/	.
16F#\JJ 16AA\	16d/JJ 16A/	.
8F#\ 8AA\	8d/ 8A/	.
8r	8r	.
=44	=44	=44
.	32qqf#/LLL	.
.	32qqg/	.
.	32qqa/JJJ	.
8DD/L 8DDD/	8b-X/L 8e-X/ 8B-X/	.
16E-X/L 16BB/ 16GG/	16e-/L 16B-/ 16G/	.
16E-/JJ 16BB/ 16GG/	16e-/JJ 16B-/ 16G/	.
8E-/ 8BB/ 8GG/	8e-/ 8B-/ 8G/	.
8r	8r	.
!!LO:PB:g=original
=45	=45	=45
.	32qqc#/LLL	.
.	32qqd/	.
.	32qqe-X/	.
.	32qqf#/JJJ	.
!	!	!LO:DY:t=p
8AA/L 8DD/	8.g/L 8.c#/	p
8E-X/J 8AA/	.	.
.	16c#/Jk 16G/	.
8AA/L 8DD/	16g/LL 16c#/	.
.	16c#/ 16G/	.
8E-/J 8AA/	16g/ 16c#/	.
.	16c#/JJ 16G/	.
=46	=46	=46
8AA/L 8DD/	4d/ 4F#/	.
16D/L 16AA/	.	.
16D/JJ 16AA/	.	.
8D/ 8AA/	4r	.
8r	.	.
=47	=47	=47
.	32qqaa\LLL	.
.	32qqbb-X\	.
!LO:TX:t=P:problem=mixedbeam	!	!
.	32qqccc#\JJJ	ff
8DD/L 8DDD/	8ddd\L 8aa\ 8dd\	.
16f#\L 16A\	16dd\L 16a\	.
16f#\JJ 16A\	16dd\JJ 16a\	.
8f#\ 8A\	8dd\ 8a\	.
8r	8r	.
=48	=48	=48
.	32qqff#\LLL	.
.	32qqgg\	.
!LO:TX:t=P:problem=mixedbeam	!	!
.	32qqaa\JJJ	.
8D/L 8DD/	8bb-X\L 8ee-X\ 8b-X\	.
16e-X\L 16B-X\ 16G\	16ee-\L 16b-\ 16g\	.
16e-\JJ 16B-\ 16G\	16ee-\JJ 16b-\ 16g\	.
8e-\ 8B-\ 8G\	8ee-\ 8b-\ 8g\	.
8r	8r	.
=49	=49	=49
.	32qqcc#\LLL	.
.	32qqdd\	.
.	32qqee-X\	p
.	32qqff#\JJJ	.
8A\L 8D\	8.gg\L 8.cc#\	.
8e-X\J 8A\	.	.
.	16cc#\Jk 16g\	.
8A\L 8D\	16gg\LL 16cc#\	.
.	16cc#\ 16g\	.
8e-\J 8A\	16gg\ 16cc#\	.
.	16cc#\JJ 16g\	.
=50	=50	=50
8A\L 8D\	4.dd\ 4.f#\	.
16d\L 16A\	.	.
16d\JJ 16A\	.	.
8d\ 8A\	.	.
8r	8dd\	.
!!LO:LB:g=original
=51	=51	=51
.	32qqee-X/	.
8D\L 8GG\	8dd\L 8b-X\ 8g\	p
.	32qqee-/	.
!	!LO:TX:i:b:t=stacato.	!
8B-X\J 8D\	8dd\J 8b-\ 8g\	.
.	32qqdd/	.
8E-X\L 8GG\	8cc#\L 8b-\ 8g\	.
.	32qqdd/	.
8B-\J 8E-\	8cc#\J 8b-\ 8g\	.
=52	=52	=52
8D\L 8GG\	8.dd\L 8.b-X\ 8.g\	.
8B-X\J 8D\	.	.
.	16ggX\Jk	.
4B-\ 4D\	16dd\LL 16b-\ 16g\	.
.	16gg\	.
.	16dd\ 16b-\ 16g\	.
.	16gg\JJ	.
=53	=53	=53
.	32qqee-X/	.
8D\L 8GG\	8dd\L 8b-X\ 8g\	.
.	32qqee-/	.
8B-X\J 8D\	8dd\J 8b-\ 8g\	.
.	32qqdd/	.
8E-X\L 8GG\	8cc#\L 8b-\ 8g\	.
.	32qqdd/	.
8B-\J 8E-\	8cc#\J 8b-\ 8g\	.
=54	=54	=54
8D\L 8GG\	8.dd\L 8.b-X\ 8.g\	.
8B-X\J 8D\	.	.
.	16bb-X\Jk	.
4B-\ 4D\	16dd\LL 16b-\ 16g\	.
.	16bb-\	.
.	16dd\ 16b-\ 16g\	.
.	16bb-\JJ	.
=55	=55	=55
!LO:TX:t=P:problem=mixedbeam	!	!LO:DY:t=f.
8AA/L 8AAA/	16aa\LL 16a\	f
.	16ff#\ 16a\	.
8d\J 8A\ 8F#\	16ee-X\ 16a\	.
.	16dd\JJ 16a\	.
4f#\ 4d\ 4B-X\	4ddd\ 4ff#\ 4dd\	.
=56	=56	=56
!LO:TX:t=P:problem=mixedbeam	!	!
8AA/L 8AAA/	16aa\LL 16a\	.
.	16ff#\ 16a\	.
8d\J 8A\ 8F#\	16ee-X\ 16a\	.
.	16dd\JJ 16a\	.
4f#\ 4d\ 4B-X\	4ddd\ 4ff#\ 4dd\	.
!!LO:LB:g=original
=57	=57	=57
8F#\L 8AA\	16aa\LL 16a\	.
.	16ff#\ 16a\	.
8d\J 8F#\	16ee-X\ 16a\	.
.	16dd\JJ 16a\	.
8G\L 8AA\	16cc#\LL 16g\	.
.	16b-X\ 16g\	.
8A\J 8G\	16a\ 16c#\	.
.	16g\JJ 16c#\	.
=58	=58	=58
8AA/L 8DD/	4dd\ 4f#\ 4d\	.
.	.	ff
16d\L 16F#\	.	.
16d\JJ 16F#\	.	.
8d\ 8F#\	4r	.
8r	.	.
=59!|:	=59!|:	=59!|:
*>B	*>B	*
*k[b-e-]	*k[b-e-]	*
!	!LO:TX:t=P:problem=przy zmianie tonacji wpisane kasowniki	!
!	!	!LO:DY:t=p
8BBB-/L	8dd\L 8b-\	p
8B-\J 8F\	8b-\J 8d\	<
8f\L 8B-\	4ddd\ 4bb-\ 4dd\	.
8B-\J 8F\	.	.
=60	=60	=60
8F\L 8BB-\	16ddd\LL 16bb-\	.
.	16bb-\ 16dd\	.
8f\J 8B-\	16bb-\ 16dd\	.
.	16ddd\JJ 16bb-\	.
8F#X\L 8BB-\	16ddd\LL 16bb-\	.
.	16bb-\ 16dd\	.
8f#X\J 8B-\	16bb-\ 16dd\	.
.	16ddd\JJ 16bb-\	[
=61	=61	=61
8AA/L 8DD^^/	16ddd\LL 16aa^^\	ff
.	16dd\	.
8F#X/J 8AA/	16dd\ 16a\	.
.	16d\JJ	.
8F#/L 8AA/	16dd/LL 16a/	.
.	16d/	.
8F#/J 8AA/	16dd/ 16a/	.
.	16d/JJ	.
=62	=62	=62
*Xtuplet	*	*
!	!LO:TX:t=P:problem=klamra łukowa	!
20D\LL	20d/LL	.
20E-\	20e-/	.
20D\	20d/	.
20C#X\	20c#X/	.
20D\JJ	20d/JJ	.
8D\L	8d/L	.
8DD\J	8D</J	.
!!LO:LB:g=original
=63	=63	=63
!LO:TX:t=P:problem=mixedbeam	!	!
8BBB-/L	8dd\L 8b-\	<
8B-\J 8F\	8b-\J 8d\	.
8f\L 8B-\	4ddd\ 4bb-\ 4dd\	.
8B-\J 8F\	.	.
=64	=64	=64
8F\L 8BB-\	16fff\LL 16ddd\	.
.	16ddd\ 16ff\	.
8f\J 8B-\	16ddd\ 16ff\	.
.	16fff\JJ 16ddd\	.
8F#X\L 8BB-\	16fff#X\LL 16ddd\	.
.	16ddd\ 16ff#X\	.
8f#X\J 8B-\	16ddd\ 16ff#\	.
.	16fff#\JJ 16ddd\	[[
=65	=65	=65
8C#X\L 8FF#X\	16fff#X\LL 16ccc#X\ 16ff\	ff
.	16ff#X\	.
8A#X\J 8C#\	16ff#\ 16cc#X\	.
.	16f#X\JJ	.
8A#\L 8C#\	16ff#\LL 16cc#\	.
.	16f#\	.
8A#\J 8C#\	16ff#\ 16cc#\	.
.	16f#\JJ	.
=66	=66	=66
*	*Xtuplet	*
20F#X\LL	20f#X/LL	>
20G\	20g/	.
20F#\	20f#/	.
20E#X\	20e#X/	.
20G\JJ	20g/JJ	.
!LO:TX:t=P:problem=mixedbeam	!	!
8F#\L	8f#/L	.
8FF#X/J	8F#X/J	]
=67	=67	=67
8BBB-X/L	8r	p
8d-X\J 8F\	8ff\ 8dd-X\ 8fn\	.
8d-\L 8B-\	16ff\LL 16dd-\ 16f\	.
.	16bb-\	.
8d-\J 8F\	16ff\ 16dd-\ 16f\	.
.	16bb-\JJ	.
=68	=68	=68
!	!LO:N:vis=4.	!
8BBB-X/L	4ff\ 4dd-X\ 4f\	.
8d-X\J 8F\	.	.
8d-\L 8B-\	32f/LLL	.
.	32g-X/	.
.	32a/	.
.	32b-/	.
8d-\J 8F\	32cc/	.
.	32dd-/	.
.	32een/	.
.	32ff/JJJ	.
!!LO:LB:g=original
=69	=69	=69
!LO:TX:t=P:problem=mixedbeam	!	!
8GGG-X/L	8gg-X\L 8dd-X\ 8g-X\	.
8B-\J 8D-X\	8gg-\J 8dd-\ 8g-\	.
8B-\L 8G-X\	16gg-\LL 16dd-\ 16g-\	.
.	16bb-\	.
8B-\J 8D-\	16gg-\ 16dd-\ 16g-\	.
.	16bb-\JJ	.
=70	=70	=70
!LO:TX:t=P:problem=mixedbeam	!LO:TX:i:b:t=espressivo	!
8GGG-X/L	4.gg-X\ 4.dd-X\ 4.g-X\	.
8B-\J 8D-X\	.	.
8B-\L 8G-X\	.	.
8B-\J 8D-\	8gg-\ 8dd-\ 8g-\	.
=71	=71	=71
.	32qqgg-X/	.
8FFF/L	8ff\L 8dd-X\ 8f\	.
8B-\J 8D-X\	8een\J 8cc\ 8en\	.
8B-\L 8F\	4ff\ 4dd-\ 4f\	.
8B-\J 8D-\	.	.
=72	=72	=72
.	32qqdd-X/	.
8FF\L	8cc\L 8f\	.
8An\J 8C\	8bn\J 8f\	.
8f\L 8A\	4cc\ 4f\	.
8A\J 8C\	.	.
!!linebreak:original
=73	=73	=73
!LO:TX:t=P:problem=mixedbeam	!	!
8BBB-/L	8.b-\L 8.f\	.
8d-X\J	.	.
.	16a\Jk	.
8B-\L 8G-X\	16b-\LL 16g-X\	.
.	16cc\ 16a\	.
8G-\J 8D-X\	16dd-X\ 16b-\	.
.	16een\JJ 16cc\	.
=74	=74	=74
8BB-\L	4ff\ 4dd-X\ 4f\	.
32B-\LL	.	.
32D\	.	.
32B-\	.	.
32d\JJJ	.	.
!LO:TX:t=P:problem=mixedbeam	!	!
8f'\L	4r	.
8FF'/J	.	.
=75	=75	=75
!LO:TX:t=P:problem=mixedbeam	!	!
8BBB-/L	8r	.
8d-X\J 8F\	8ff\ 8dd-X\ 8f\	.
8d-\L 8B-\	16ff\LL 16dd-\ 16f\	.
.	16bb-\	.
8d-\J 8F\	16ff\ 16dd-\ 16f\	.
.	16bb-\JJ	.
!!LO:LB:g=original
=76	=76	=76
!	!LO:N:vis=4.	!
8BBB-/L	4ff\ 4dd-X\ 4f\	.
8d-X\J 8F\	.	.
8d-\L 8B-\	32f\LLL	.
.	32g-X\	.
.	32a\	.
.	32b-\	.
8d-\J 8F\	32cc\	.
.	32dd-\	.
.	32een\	.
.	32ff\JJJ	.
=77	=77	=77
!LO:TX:t=P:problem=mixedbeam	!	!
8GGG-X/L	8gg-X\L 8dd-X\ 8g-X\	.
8B-\J 8D-X\	8gg-\J 8dd-\ 8g-\	.
8B-\L 8G-X\	16gg-\LL 16dd-\ 16g-\	.
.	16bb-\	.
8B-\J 8D-\	16gg-\ 16dd-\ 16g-\	.
.	16bb-\JJ	.
=78	=78	=78
!LO:TX:t=P:problem=mixedbeam	!	!
8GGG-X/L	4.gg-X\ 4.dd-X\ 4.g-X\	.
8B-\J 8D-X\	.	.
8B-\L 8G-X\	.	.
8B-\J 8D-\	8gg-\ 8dd-\ 8g-\	.
=79	=79	=79
.	32qqgg-X/	.
8FFF/L	8ff\L 8dd-X\ 8f\	.
8B-\J 8D-X\	8een\J 8cc\ 8en\	.
8B-\L 8F\	4ff\ 4dd-\ 4f\	.
8B-\J 8D-\	.	.
=80	=80	=80
.	32qqdd-X/	.
8FF\L	8cc\L 8f\	.
8A\J 8C\	8bn\J 8f\	.
8f\L 8A\	4cc\ 4f\	<
8A\J 8C\	.	.
=81	=81	=81
!LO:TX:t=pri,,mo	!	!
*>B1	*>B1	*
.	32qqddn/	.
8FF\L	8cc#X\L 8f\	.
8A\J 8C#X\	8ccn\J 8f\	[[
8f\L 8A\	4cc#X\ 4f\	.
8A\J 8C#\	.	.
!!LO:LB:g=original
=82	=82	=82
!	!	!LO:DY:t=f.
20F\LL	20f/LL	f
20G-X\	20g-X/	.
20F\	20f/	.
20En\	20en/	.
20G-\JJ	20g-/JJ	.
8F/L	8f/L	.
8FF/J	8F/J	.
=83:|!	=83:|!	=83:|!
!LO:TX:t=sec_on_do._	!	!
*>B2	*>B2	*
8BBB-/L	8.b-\L 8.B-\	.
.	.	pp
8F\J 8BB-\	.	.
!	!LO:N:vis=16..	!
.	16f\Jk	.
8d-X\L 8F\	16b-\LL 16B-\	.
.	16f\	.
8F\J 8BB-\	16b-\ 16B-\	.
.	16f\JJ	.
=84	=84	=84
20BB-\LL	20B-/LL	.
20C\	20c/	.
20BB-\	20B-/	.
20AA\	20A/	.
20C\JJ	20c/JJ	.
4BB-\	4B-/	.
=85||	=85||	=85||
*>C	*>C	*
*k[f#c#]	*k[f#c#]	*
.	32qqa\LLL	.
.	32qqb-X\	.
!	!LO:TX:t=P:problem=kasowniki przy zmianie tonacji	!
!LO:TX:t=P:problem=mixedbeam	!LO:TX:t=P:problem=mixedbeam	!
.	32qqcc#\JJJ	ff
8DD/L 8DDD/	8dd\L 8a\ 8d\	.
16F#\L 16AA\	16d/L 16A/	.
16F#\JJ 16AA\	16d/JJ 16A/	.
8F#\ 8AA\	8d/ 8A/	.
8r	8r	.
=86	=86	=86
.	32qqf#/LLL	.
.	32qqg/	.
.	32qqa/JJJ	.
8DD/L 8DDD/	8b-X/L 8e-X/ 8B-X/	.
16E-X/L 16BB-X/ 16GG/	16e-/L 16B-/ 16G/	.
16E-/JJ 16BB-/ 16GG/	16e-/JJ 16B-/ 16G/	.
8E-/ 8BB-/ 8GG/	8e-/ 8B-/ 8G/	.
8r	8r	.
!!LO:LB:g=original
=87	=87	=87
.	32qqc#/LLL	.
.	32qqd/	.
.	32qqe-X/	.
.	32qqf#/JJJ	.
8AA/L 8DD/	8.g/L 8.c#/	mf
8E-X/J 8AA/	.	.
.	16c#/Jk 16G/	.
8AA/L 8DD/	16g/LL 16c#/	.
.	16c#/ 16G/	.
8E-/J 8AA/	16g/ 16c#/	.
.	16c#/JJ 16G/	.
=88	=88	=88
8AA/L 8DD/	4d/ 4F#/	.
16D/L 16AA/	.	.
16D/JJ 16AA/	.	.
8D/ 8AA/	4r	.
8r	.	.
=89	=89	=89
.	32qqaa\LLL	.
.	32qqbb-X\	.
!LO:TX:t=P:problem=mixedbeam	!	!
.	32qqccc#\JJJ	ff
8DD/L 8DDD/	8ddd\L 8aa\ 8dd\	.
16f#\L 16A\	16dd\L 16a\	.
16f#\JJ 16A\	16dd\JJ 16a\	.
8f#\ 8A\	8dd\ 8a\	.
8r	8r	.
=90	=90	=90
.	32qqff#\LLL	.
.	32qqgg\	.
!LO:TX:t=P:problem=mixedbeam	!	!
.	32qqaa\JJJ	.
8D/L 8DD/	8bb-X\L 8ee-X\ 8b-X\	.
16e-X\L 16B-X\ 16G\	16ee-\L 16b-\ 16g\	.
16e-\JJ 16B-\ 16G\	16ee-\JJ 16b-\ 16g\	.
8e-\ 8B-\ 8G\	8ee-\ 8b-\ 8g\	.
8r	8r	.
=91	=91	=91
.	32qqcc#\LLL	.
.	32qqdd\	.
.	32qqee-X\	mf
.	32qqff#\JJJ	.
8A\L 8D\	8.gg\L 8.cc#\	.
8e-X\J 8A\	.	.
.	16cc#\Jk 16g\	.
8A\L 8D\	16gg\LL 16cc#\	.
.	16cc#\ 16g\	.
8e-\J 8A\	16gg\ 16cc#\	.
.	16cc#\JJ 16g\	.
=92	=92	=92
8A\L 8D\	4.dd\ 4.f#\	.
16d\L 16A\	.	.
16d\JJ 16A\	.	.
8d\ 8A\	.	.
8r	8dd\	.
!!LO:PB:g=original
=93	=93	=93
!	!	!LO:DY:t=p
8G\L	16ee-X\| 16b-X\	p
.	16r	.
8g\J 8e-X\ 8B-X\ 8G\	[8ee-\ [8b-\	.
8g\L 8e-\ 8B-\ 8G\	16ee-\]LL 16b-\]	.
.	16gg\	.
8g\J 8e-\ 8B-\ 8G\	16bb-X\	.
.	16gg\JJ	.
=94	=94	=94
8GG\L	16ee-X\LL 16b-X\	.
.	16gg\	.
8g\J 8e-X\ 8B-X\ 8G\	16bb-X\	.
.	16gg\JJ	.
8g\L 8e-\ 8B-\ 8G\	16ee-\LL 16b-\	.
.	16gg\	.
8g\J 8e-\ 8B-\ 8G\	16bb-X\	.
.	16eee-X\JJ	.
=95	=95	=95
4A\: 4D\: 4FF#:\	16eee-X\LL 16aa\ 16dd\	.
.	16ddd\	.
.	16ddd\	.
.	16aa\JJ	.
!	!LO:TX:t=P:problem=dodatkowa nuta 8aa\ zamazana	!
!	!LO:TX:i:b:t=quasi zimbalo.	!
16ryy	16aa/	.
16dd>\	16ryy	.
16ryy	16dd/	.
16a>\	16ryy	.
=96	=96	=96
16ryy	16a/	.
16d>\	16ryy	.
16ryy	16d/	.
16A\	16ryy	.
16ryy	16A</	.
16D\	16ryy	.
16ryy	16D</	.
16AA\	16ryy	.
=97	=97	=97
!LO:TX:t=P:problem=mixedbeam	!	!
8EE-X/L	16cc#\ 16g\	.
.	16r	.
8c#\J 8G\	[8cc#\ [>8g\	.
8c#\L 8G\	16cc#\]LL 16g\]	.
.	16ee-X\	.
8c#\J 8G\	16gg\	.
.	16ee-\JJ	.
=98	=98	=98
!LO:TX:t=P:problem=mixedbeam	!	!
8EE-X/L	16cc#\LL 16g\	.
.	16ee-X\	.
8c#\J 8G\	16gg\	.
.	16ee-\JJ	.
8c#\L 8G\	16cc#\LL 16g\	.
.	16ee-\	.
8c#\J 8G\	16gg\	.
.	16bb-X\JJ	.
!!LO:LB:g=original
=99	=99	=99
4F#\: 4AA\: 4DD:\	16bb-X\LL 16dd\ 16a\	.
.	16aa\	.
.	16aa\	.
.	16dd\JJ	.
16ryy	16dd/	.
16a>\	16ryy	.
16ryy	16a/	.
16d>\	16ryy	.
=100	=100	=100
16ryy	16d</	.
16A\	16ryy	.
16ryy	16A</	.
16D\	16ryy	.
16ryy	16D</	.
16AA\	16ryy	.
16ryy	16AA</	.
16DD\	16ryy	.
=101	=101	=101
8GG\L	16ee-\ 16b-X\	.
.	16r	.
8g\J 8e-X\ 8B-X\ 8G\	[8ee-\ [8b-\	.
8g\L 8e-\ 8B-\ 8G\	16ee-\]LL 16b-\]	.
.	16gg\	.
8g\J 8e-\ 8B-\ 8G\	16bb\	.
.	16gg\JJ	.
=102	=102	=102
8GG\L	16ee-X\LL 16b-X\	.
.	16gg\	.
8g\J 8e-X\ 8B-X\ 8G\	16bb-X\	.
.	16gg\JJ	.
8g\L 8e-\ 8B-\ 8G\	16ee-\LL 16b-\	.
.	16gg\	.
8g\J 8e-\ 8B-\ 8G\	16bb-\	.
.	16eee-X\JJ	.
=103	=103	=103
4A\: 4D\: 4FF#:\	16eee-X\LL 16aa\ 16dd\	.
.	16ddd\	.
.	16ddd\	.
.	16aa\JJ	.
16ryy	16aa/	.
16dd>\	16ryy	.
16ryy	16dd/	.
16a>\	16ryy	.
=104	=104	=104
16ryy	16a/	.
16d>\	16ryy	.
16ryy	16d/	.
16A\	16ryy	.
16ryy	16A</	.
16D\	16ryy	.
16ryy	16D</	.
16AA\	16ryy	.
!!LO:LB:g=original
=105	=105	=105
!LO:TX:t=P:problem=mixedbeam	!	!
8EE-X/L	16cc#\ 16g\	.
.	16r	.
8c#\J 8G\	[8cc#\ [>8g\	.
8c#\L 8G\	16cc#\]LL 16g\]	.
.	16ee-X\	.
8c#\J 8G\	16gg\	.
.	16ee-\JJ	.
=106	=106	=106
!LO:TX:t=P:problem=mixedbeam	!	!
8EE-X/L	16cc#\LL 16g\	.
.	16ee-X\	.
8c#\J 8G\	16gg\	.
.	16ee-\JJ	.
8c#\L 8G\	16cc#\LL	.
.	16ee-\	.
8c#\J 8G\	16gg\	.
.	16bb-X\JJ	.
=107	=107	=107
4F#/: 4AA/: 4DD:/	16bb-X\LL 16dd\ 16a\	.
.	16aa\	.
.	16aa\	.
.	16dd\JJ	.
16ryy	16dd/	.
16a>\	16ryy	.
16ryy	16a/	.
16d>\	16ryy	.
=108	=108	=108
16ryy	16dd/	.
16a>\	16ryy	.
16ryy	16a/	.
16d>\	16ryy	.
16ryy	16dd/	.
16a>\	16ryy	.
16ryy	16a/	.
16d>\	16ryy	.
=109	=109	=109
!	!LO:TX:i:b:t=zimbalo.	!
16ryy	16dd/	.
16a>\	16ryy	.
16ryy	16a/	.
16a>\	16ryy	.
16ryy	16dd/	.
16a>\	16ryy	.
16ryy	16a/	.
16a>\	16ryy	.
=110	=110	=110
16ryy	16dd/	.
16a>\	16ryy	.
16ryy	16a/	.
16a>\	16ryy	.
16ryy	16dd/	.
16a>\	16ryy	.
16ryy	16a/	.
16a>\	16ryy	.
!!LO:LB:g=original
=111	=111	=111
.	32qqa\LLL	.
.	32qqb-X\	.
!LO:TX:t=P:problem=mixedbeam	!LO:TX:t=P:problem=mixedbeam	!
.	32qqcc#\JJJ	ff
8DD/L 8DDD/	8dd\L 8a\ 8d\	.
16F#\L 16AA\	16d/L 16A/	.
16F#\JJ 16AA\	16d/JJ 16A/	.
8F#\ 8AA\	8d/ 8A/	.
8r	8r	.
=112	=112	=112
.	32qqf#/LLL	.
.	32qqg/	.
.	32qqa/JJJ	.
8DD/L 8DDD/	8b-X/L 8e-X/ 8B-X/	.
16E-X/L 16BB-X/ 16GG/	16e-/L 16B-/ 16G/	.
16E-/JJ 16BB-/ 16GG/	16e-/JJ 16B-/ 16G/	.
8E-/ 8BB-/ 8GG/	8e-/ 8B-/ 8G/	.
8r	8r	.
=113	=113	=113
.	32qqc#/LLL	.
.	32qqd/	.
.	32qqe-X/	.
.	32qqf#/JJJ	p
8AA/L 8DD/	8.g/L 8.c#/	.
8E-X/J 8AA/	.	.
.	16c#/Jk 16G/	.
8AA/L 8DD/	16g/LL 16c#/	.
.	16c#/ 16G/	.
8E-/J 8AA/	16g/ 16c#/	.
.	16c#/JJ 16G/	.
=114	=114	=114
8AA/L 8DD/	4d/ 4F#/	.
16D/L 16AA/	.	.
16D/JJ 16AA/	.	.
8D/ 8AA/	4r	.
8r	.	.
=115	=115	=115
.	32qqaa\LLL	.
.	32qqbb-X\	.
!LO:TX:t=P:problem=mixedbeam	!	!
.	32qqccc#\JJJ	ff
8DD/L 8DDD/	8ddd\L 8aa\ 8dd\	.
16f#\L 16A\	16dd\L 16a\	.
16f#\JJ 16A\	16dd\JJ 16a\	.
8f#\ 8A\	8dd\ 8a\	.
8r	8r	.
!!LO:LB:g=original
=116	=116	=116
.	32qqff#/LLL	.
.	32qqgg/	.
!LO:TX:t=P:problem=mixedbeam	!	!
.	32qqaa/JJJ	.
8D/L 8DD/	8bb-X\L 8ee-X\ 8b-X\	.
16e-X\L 16B-X\ 16G\	16ee-\L 16b-\ 16g\	.
16e-\JJ 16B-\ 16G\	16ee-\JJ 16b-\ 16g\	.
8e-\ 8B-\ 8G\	8ee-\ 8b-\ 8g\	.
8r	8r	.
=117	=117	=117
.	32qqbbn\LLL	.
.	32qqcccn\	.
!LO:TX:t=P:problem=mixedbeam	!	!
.	32qqddd#X\JJJ	.
8DD/L 8DDD/	8eee\L 8bb\ 8ee\	.
16e\L 16B\ 16G#X\	16ee\L 16b\ 16g#X\	.
16e\JJ 16B\ 16G#\	16ee\JJ 16b\ 16g#\	.
8e\ 8B\ 8G#\	8ee\ 8b\ 8g#\	.
8r	8r	<
=118	=118	=118
.	32qqgg#X\LLL	.
.	32qqaa\	.
!LO:TX:t=P:problem=mixedbeam	!	!
.	32qqbb\JJJ	.
8D/L 8DD/	8cccn\L 8ffn\ 8ccn\	.
16fn\L 16c#\ 16A\	16ff\L 16cc\ 16a\	.
16f\JJ 16c#\ 16A\	16ff\JJ 16cc\ 16a\	.
!	!LO:TX:i:b:t=molto	!
8f\ 8c#\ 8A\	8ff\ 8cc\ 8a\	.
8r	8r	.
=119	=119	=119
.	32qqccc#\LLL	.
.	32qqddd\	.
!LO:TX:t=P:problem=mixedbeam	!	!
.	32qqeee#X\JJJ	.
8DD/L 8DDD/	8fff#\L 8ccc#\ 8ff#X\	.
16f#\L 16c#\ 16A#X\	16ff#\L 16cc#\ 16a#X\	.
16f#\JJ 16c#\ 16A#\	16ff#\J 16cc#\ 16a#\	.
8f#\ 8c#\ 8A#\	8ff#\J 8cc#\ 8a#\	.
8r	8r	.
=120	=120	=120
8A#X\L 8D\	16ff#\LL 16cc#\	.
.	16cc#\ 16f#\	.
8A#\J	16cc#\ 16f#\	.
.	16ff#\JJ 16cc#\	.
8A#\L 8D\	16ff#\LL 16dd\	.
.	16dd\ 16f#\	.
8A#\J	16dd\ 16f#\	.
.	16ff#\JJ 16dd\	.
!!LO:LB:g=original
=121	=121	=121
8C#X\L 8FF#^^\	16ff#^^\LL	.
.	16f#\JJ	.
8A#X\J 8C#\	16f#/LL 16c#/	.
.	16F#/JJ	.
8A#\L 8C#\	16f#/LL 16c#/	.
.	16F#/	.
8A#\J 8C#\	16f#/ 16c#/	.
.	16F#/JJ	.
=122	=122	=122
20FF#\LL	20F#</LL	.
20GG\	20G</	.
20FF#\	20F#</	.
20EE#X\	20E#X</	.
20GG\JJ	20G</JJ	.
8FF#/L	8F#</	.
8FF#\ 8FFF#\J	8r<	.
=123	=123	=123
.	32qqfffn\LLL	.
.	32qqggg-X\	.
.	32qqaaa\JJJ	ff
8DD/L 8DDD/	8bbb-X\L 8fff\ 8bb-X\	.
16d\L 16B-X\ 16Fn\	16dd\L 16b-X\ 16fn\	.
16d\JJ 16B-\ 16F\	16dd\JJ 16b-\ 16f\	.
8d\ 8B-\ 8F\	8dd\ 8b-\ 8f\	.
8r	8r	.
=124	=124	=124
8B-X\L 8D\	16bb-X\LL 16ffn\	.
.	16ff\ 16b-X\	.
8fn\J 8B-\	16ff\ 16b-\	.
.	16bb-\JJ 16ff\	.
8B-\L 8D\	16bb-\LL 16ff#X\	.
.	16ff#\ 16b-\	.
8f#X\J 8B-\	16ff#\ 16b-\	.
.	16bb-\JJ 16ff#\	.
=125	=125	=125
8Fn\L 8BB-X^^\	16bb-X\LL 16ffn^^\	.
.	16b-X\	.
8d\J 8F\	16b-\ 16fn\	.
.	16B-X\JJ	.
8d\L 8F\	16b-\LL 16f\	.
.	16B-\	.
8d\J 8F\	16b-\ 16f\	.
.	16B-\JJ	.
!!LO:LB:g=original
=126	=126	=126
20BB-X\LL	20B-X</LL	.
20C-\	20c-</	.
20BB-\	20B-</	.
20AA\	20A</	.
20C-\JJ	20c-</JJ	.
8BB-\L	8B-</	.
8BB-\J 8BBB-X\	8r<	.
=127	=127	=127
8DD/L 8DDD/	16ddd\LL 16bb-X^^\	.
.	16dd\	.
8D/J 8DD/	16dd\ 16b-X\	.
.	16d\JJ	.
8F#\L 8BB-X\	16dd\LL 16b-\	.
.	16d\	.
8B-X\J 8D\	16dd\ 16b-\	.
.	16d\JJ	.
=128	=128	=128
!	!LO:TX:i:b:t=sempre	!
20D\LL	20d/LL	.
20E-X\	20e-X/	.
20D\	20d/	.
20C#\	20c#/	.
20E-\JJ	20e-/JJ	.
!LO:TX:t=P:problem=mixedbeam	!	!
8D\L	8d/	ff
8D/J 8DD/	8r	.
=129	=129	=129
!LO:TX:t=P:problem=mixedbeam	!	!
8DD/L 8DDD/	16fff#\LL 16ddd\	.
.	16ff#\	.
8F#\J 8AA\	16ff#\ 16dd\	.
.	16f#\JJ	.
8A\L 8D\	16ff#\LL 16dd\	.
.	16f#\	.
8d\J 8F#\	16ff#\ 16dd\	.
.	16f#\JJ	.
=130	=130	=130
20D\LL	20d/LL	.
20E-X\	20e-X/	.
20D\	20d/	.
20C#\	20c#/	.
20E-\JJ	20e-/JJ	.
8D\L	8d/	.
8D\J 8DD\	8r	.
!!LO:LB:g=original
=131	=131	=131
*	*8va	*
!LO:TX:t=P:problem=mixedbeam	!	!
8DD/L 8DDD/	16ffff#\LL 16dddd\	.
.	16fff#\	.
*	*X8va	*
8F#\J 8AA\	16fff#\ 16ddd\	.
.	16ff#\JJ	.
8A\L 8D\	16fff#\ 16ddd\LL	.
.	16ff#\	.
8d\J 8F#\	16fff#\ 16ddd\	.
.	16ff#\JJ	.
=132	=132	=132
8f#\L 8B-X\	16fff#\LL 16ddd\	.
.	16ff#\	.
8d\J 8F#\	16ff#\ 16dd\	.
.	16f#\JJ	.
8B-\L 8D\	16ff#\LL 16dd\	.
.	16f#\	.
8F#\J 8BB-X\	16ff#\ 16dd\	.
.	16f#\JJ	.
=133	=133	=133
8DD/L 8DDD/	16ff#\LL 16dd\	.
.	16f#\	.
8FF#/J 8AAA/	16f#\ 16d\	.
.	16F#\JJ	.
8AA/L 8DD/	16f#/LL 16d/	.
.	16A/	.
8D/J 8FF#/	16f#/ 16d/	.
.	16A/JJ	.
=134	=134	=134
8F#/L 8BB-X/	16f#/LL 16d/	.
.	16F#/JJ	.
*	*clefF4	*
8D/J 8FF#/	16r	.
.	16F#\ 16D\	.
8BB-/L 8DD/	16r	.
.	16F#\ 16D\	.
8FF#/J 8BBB-X/	16r	.
.	16F#\ 16D\	.
=135	=135	=135
4DD/ 4DDD/	2r	.
4r	.	.
=136	=136	=136
*	*2\right	*
!	!LO:CL:ed	!
*	*clefG2	*
2B-X\ 2F#\ 2D\	2ff#\ 2dd\ 2b-\ 2f#\	.
=137	=137	=137
32qqAAA\LLL	32qqAA</LLL	.
32qqBBB-X\	32qqBB-X</	.
32qqCC#\JJJ	32qqC#</JJJ	.
*2\right	*	*
!	!LO:TX:b:i:t=Fine.	!
2DD\ 2DDD\	2D</	.
==	==	==
*-	*-	*-
!!!system-decoration: {(s1,s2)}
!!!RDF**kern: > = above
!!!RDF**kern: < = below
!!!RDF**kern: | = vertical stroke
!!!RDF**dynam: ff = ff.
!!!RDF**dynam: mf = mf.
!!!RDF**dynam: p = p.
!!!EED: Andrzej Borzym
!!!EEV: 2021-05-21
!!!ENC: Anastazja Marusiak
!!!END: 2021-05-05
